; generated by PrusaSlicer 2.5.2 on 2023-06-08 at 02:57:41 UTC


;
;

;
;
; 

; external perimeters extrusion width = 0.45mm
; perimeters extrusion width = 0.45mm
; infill extrusion width = 0.45mm
; solid infill extrusion width = 0.45mm
; top infill extrusion width = 0.40mm
; first layer extrusion width = 0.42mm

M107
;TYPE:Custom
G90 ; use absolute coordinates
M83 ; extruder relative mode
M104 S120 ; set temporary nozzle temp to prevent oozing during homing and auto bed leveling
M140 S65 ; set final bed temp
G4 S10 ; allow partial nozzle warmup
G28 ; home all axis
G1 Z50 F240
G1 X2 Y10 F3000
M104 S205 ; set final nozzle temp
M190 S65 ; wait for bed temp to stabilize
M109 S205 ; wait for nozzle temp to stabilize
G1 Z0.28 F240
G92 E0
G1 Y140 E10 F1500 ; prime the nozzle
G1 X2.3 F5000
G92 E0
G1 Y10 E10 F1200 ; prime the nozzle
G92 E0
G21 ; set units to millimeters
G90 ; use absolute coordinates
M83 ; use relative distances for extrusion
; Filament gcode
M107
;LAYER_CHANGE
;Z:0.2
;HEIGHT:0.2
;BEFORE_LAYER_CHANGE
G92 E0
;0.2


G1 E-5 F3600
G1 Z1 F9000
;AFTER_LAYER_CHANGE
;0.2
G1 X107.549 Y97.882
G1 Z.2
G1 E5 F2400
;TYPE:Skirt/Brim
;WIDTH:0.42
G1 F1200
G1 X108.403 Y97.063 E.03711
G1 X109.628 Y96.147 E.04795
G1 X110.899 Y95.448 E.04549
G1 X112.329 Y94.906 E.04795
G1 X113.386 Y94.64 E.03417
G1 X114.558 Y94.48 E.03711
G1 X116.088 Y94.458 E.04795
G1 X117.696 Y94.678 E.05089
G1 X118.84 Y94.983 E.03712
G1 X120.014 Y95.448 E.03959
G1 X121.428 Y96.244 E.05089
G1 X122.306 Y96.889 E.03417
G1 X123.177 Y97.691 E.03712
G1 X124.104 Y98.769 E.04457
G1 X131.669 Y108.367 E.38319
G1 X132.26 Y110.072 E.05658
G1 X132.26 Y136.915 E.84163
G1 X131.454 Y138.862 E.06609
G1 X130.575 Y139.741 E.03896
G1 X128.628 Y140.548 E.06609
G1 X122.367 Y140.542 E.19631
G1 X120.29 Y140.28 E.06563
G1 X117.747 Y139.627 E.08231
G1 X115.375 Y138.7 E.07984
G1 X112.751 Y137.276 E.09362
G1 X110.627 Y135.733 E.08231
G1 X108.763 Y133.998 E.07984
G1 X106.848 Y131.708 E.09361
G1 X105.441 Y129.491 E.08231
G1 X104.347 Y127.192 E.07984
G1 X103.432 Y124.449 E.09067
G1 X102.889 Y121.513 E.09361
G1 X102.74 Y118.971 E.07984
G1 X102.889 Y116.523 E.07689
G1 X104.751 Y103.787 E.4036
G1 X105.004 Y102.511 E.04078
G1 X105.428 Y101.223 E.04253
G1 X106.011 Y99.997 E.04254
G1 X106.85 Y98.718 E.04796
G1 X107.51 Y97.928 E.03228
G1 X107.799 Y98.169 F9000
G1 F1200
G1 X108.662 Y97.338 E.03755
G1 X109.83 Y96.465 E.04573
G1 X111.059 Y95.789 E.044
G1 X112.423 Y95.271 E.04572
G1 X113.456 Y95.01 E.03342
G1 X114.606 Y94.854 E.03637
G1 X116.064 Y94.834 E.04573
G1 X117.602 Y95.043 E.04866
G1 X118.723 Y95.342 E.03638
G1 X119.853 Y95.789 E.03811
G1 X121.206 Y96.549 E.04866
G1 X122.066 Y97.179 E.03343
G1 X122.919 Y97.966 E.03638
G1 X123.808 Y99.002 E.0428
G1 X131.373 Y108.601 E.38319
G1 X131.883 Y110.072 E.04883
G1 X131.883 Y136.915 E.84163
G1 X131.187 Y138.596 E.05704
G1 X130.308 Y139.474 E.03896
G1 X128.628 Y140.17 E.05704
G1 X122.39 Y140.166 E.19557
G1 X120.361 Y139.909 E.06414
G1 X117.864 Y139.268 E.08083
G1 X115.514 Y138.349 E.0791
G1 X112.953 Y136.958 E.09139
G1 X110.868 Y135.442 E.08083
G1 X109.022 Y133.723 E.0791
G1 X107.153 Y131.486 E.09139
G1 X105.772 Y129.31 E.08083
G1 X104.688 Y127.032 E.0791
G1 X103.797 Y124.355 E.08845
G1 X103.265 Y121.49 E.09139
G1 X103.117 Y119.065 E.07615
G1 X103.265 Y116.547 E.0791
G1 X105.124 Y103.842 E.40261
G1 X105.369 Y102.605 E.03954
G1 X105.779 Y101.361 E.04105
G1 X106.342 Y100.179 E.04105
G1 X107.14 Y98.958 E.04574
G1 X107.761 Y98.215 E.03035
G1 E-3.5 F3600
;WIPE_START
G1 F7200
G1 X108.662 Y97.338 E-.59722
G1 X109.83 Y96.465 E-.69273
G1 X110.079 Y96.328 E-.13505
;WIPE_END
G1 E-.075 F3600
G1 Z1.2 F9000
G1 X107.845 Y112.251
G1 Z.2
G1 E5 F2400
G1 F1200
G1 X110.146 Y112.251 E.07214
G1 X110.369 Y112.323 E.00735
G1 X110.704 Y112.576 E.01315
G1 X110.804 Y112.726 E.00565
G1 X111.026 Y113.421 E.02287
G1 X111.162 Y114.133 E.02274
G1 X111.211 Y114.93 E.02501
G1 X111.162 Y115.653 E.02274
G1 X111.028 Y116.363 E.02266
G1 X110.805 Y116.892 E.018
G1 X110.608 Y117.498 E.01999
G1 X110.49 Y118.116 E.01971
G1 X110.45 Y118.743 E.01971
G1 X110.49 Y119.371 E.01971
G1 X110.608 Y119.988 E.01971
G1 X110.802 Y120.586 E.01971
G1 X111.07 Y121.155 E.01971
G1 X111.406 Y121.686 E.01971
G1 X111.807 Y122.17 E.01971
G1 X112.265 Y122.6 E.01971
G1 X112.774 Y122.97 E.01971
G1 X113.325 Y123.273 E.01971
G1 X113.909 Y123.504 E.01971
G1 X114.518 Y123.661 E.01971
G1 X115.142 Y123.739 E.01971
G1 X115.771 Y123.739 E.01971
G1 X116.394 Y123.661 E.01971
G1 X117.003 Y123.504 E.01971
G1 X117.588 Y123.273 E.01971
G1 X118.139 Y122.97 E.01971
G1 X118.647 Y122.6 E.01971
G1 X119.105 Y122.17 E.01971
G1 X119.506 Y121.686 E.01971
G1 X119.843 Y121.155 E.01971
G1 X120.111 Y120.586 E.01971
G1 X120.305 Y119.988 E.01971
G1 X120.423 Y119.371 E.01971
G1 X120.462 Y118.743 E.01971
G1 X120.423 Y118.116 E.01971
G1 X120.305 Y117.498 E.01971
G1 X120.108 Y116.892 E.01999
G1 X119.884 Y116.362 E.01803
G1 X119.744 Y115.605 E.02416
G1 X119.702 Y114.858 E.02346
G1 X119.75 Y114.135 E.02271
G1 X119.88 Y113.445 E.02201
G1 X120.109 Y112.726 E.02364
G1 X120.209 Y112.576 E.00566
G1 X120.543 Y112.323 E.01315
G1 X120.766 Y112.251 E.00735
G1 X125.464 Y112.251 E.14728
G1 X125.47 Y110.412 E.05766
G1 X125.573 Y110.193 E.00757
G1 X125.916 Y109.85 E.01522
G1 X126.171 Y109.751 E.00856
G1 X128.256 Y109.751 E.06538
G1 X128.506 Y109.86 E.00856
G1 X128.849 Y110.203 E.01522
G1 X128.949 Y110.458 E.00856
G1 X128.949 Y136.529 E.81744
G1 X128.849 Y136.783 E.00856
G1 X128.506 Y137.127 E.01522
G1 X128.256 Y137.236 E.00857
G1 X122.491 Y137.232 E.18074
G1 X120.922 Y137.029 E.04962
G1 X118.76 Y136.474 E.07
G1 X116.617 Y135.63 E.07221
G1 X114.535 Y134.486 E.07447
G1 X112.693 Y133.143 E.07147
G1 X111.048 Y131.6 E.07073
G1 X109.534 Y129.77 E.07446
G1 X108.315 Y127.844 E.07147
G1 X107.353 Y125.804 E.07073
G1 X106.619 Y123.545 E.07446
G1 X106.198 Y121.329 E.07074
G1 X106.052 Y119.054 E.07147
G1 X106.201 Y116.684 E.07445
G1 X106.619 Y114.491 E.06999
G1 X107.187 Y112.729 E.05805
G1 X107.326 Y112.538 E.00742
G1 X107.621 Y112.324 E.01142
G1 X107.788 Y112.269 E.00553
G1 X107.875 Y112.628 F9000
G1 F1200
G1 X110.117 Y112.628 E.07028
G1 X110.173 Y112.646 E.00187
G1 X110.42 Y112.825 E.00956
G1 X110.455 Y112.874 E.00188
G1 X110.658 Y113.504 E.02075
G1 X110.787 Y114.169 E.02125
G1 X110.834 Y114.917 E.0235
G1 X110.789 Y115.595 E.02128
G1 X110.662 Y116.272 E.02162
G1 X110.452 Y116.758 E.0166
G1 X110.242 Y117.404 E.02131
G1 X110.115 Y118.069 E.0212
G1 X110.073 Y118.743 E.0212
G1 X110.115 Y119.418 E.0212
G1 X110.242 Y120.082 E.0212
G1 X110.451 Y120.725 E.0212
G1 X110.738 Y121.337 E.0212
G1 X111.101 Y121.908 E.0212
G1 X111.532 Y122.429 E.0212
G1 X112.025 Y122.892 E.0212
G1 X112.572 Y123.289 E.0212
G1 X113.164 Y123.615 E.0212
G1 X113.793 Y123.864 E.0212
G1 X114.447 Y124.032 E.0212
G1 X115.118 Y124.116 E.0212
G1 X115.794 Y124.116 E.0212
G1 X116.465 Y124.032 E.0212
G1 X117.12 Y123.864 E.0212
G1 X117.748 Y123.615 E.0212
G1 X118.341 Y123.289 E.0212
G1 X118.888 Y122.892 E.0212
G1 X119.381 Y122.429 E.0212
G1 X119.812 Y121.908 E.0212
G1 X120.174 Y121.337 E.0212
G1 X120.462 Y120.725 E.0212
G1 X120.671 Y120.082 E.0212
G1 X120.797 Y119.418 E.0212
G1 X120.84 Y118.743 E.0212
G1 X120.797 Y118.069 E.0212
G1 X120.671 Y117.404 E.0212
G1 X120.461 Y116.758 E.02131
G1 X120.251 Y116.272 E.01661
G1 X120.12 Y115.57 E.02237
G1 X120.079 Y114.87 E.022
G1 X120.123 Y114.193 E.02126
G1 X120.249 Y113.526 E.02128
G1 X120.457 Y112.874 E.02148
G1 X120.493 Y112.825 E.00187
G1 X120.739 Y112.646 E.00956
G1 X120.796 Y112.628 E.00187
G1 X125.841 Y112.628 E.15817
G1 X125.841 Y110.5 E.06672
G1 X125.869 Y110.43 E.00235
G1 X126.143 Y110.156 E.01215
G1 X126.213 Y110.128 E.00235
G1 X128.2 Y110.128 E.06231
G1 X128.269 Y110.156 E.00235
G1 X128.543 Y110.43 E.01215
G1 X128.572 Y110.5 E.00235
G1 X128.572 Y136.487 E.81482
G1 X128.543 Y136.556 E.00235
G1 X128.269 Y136.83 E.01215
G1 X128.2 Y136.859 E.00235
G1 X122.527 Y136.856 E.17786
G1 X121.004 Y136.661 E.04815
G1 X118.865 Y136.111 E.06926
G1 X116.766 Y135.284 E.07073
G1 X114.748 Y134.174 E.07223
G1 X112.942 Y132.86 E.07
G1 X111.314 Y131.333 E.06999
G1 X109.846 Y129.559 E.07222
G1 X108.651 Y127.673 E.07
G1 X107.699 Y125.654 E.06999
G1 X106.987 Y123.463 E.07222
G1 X106.571 Y121.27 E.06999
G1 X106.429 Y119.042 E.06999
G1 X106.574 Y116.743 E.07222
G1 X106.987 Y114.574 E.06925
G1 X107.537 Y112.874 E.05601
G1 X107.572 Y112.825 E.00187
G1 X107.818 Y112.646 E.00955
G1 X107.966 Y113.005 F9000
G1 F1200
G1 X110.025 Y113.005 E.06456
G1 X110.124 Y113.077 E.00383
G1 X110.296 Y113.608 E.01751
G1 X110.414 Y114.228 E.01979
G1 X110.457 Y114.905 E.02126
G1 X110.414 Y115.558 E.02053
G1 X110.295 Y116.179 E.01982
G1 X110.099 Y116.622 E.01519
G1 X109.876 Y117.31 E.02268
G1 X109.74 Y118.021 E.02269
G1 X109.695 Y118.743 E.02269
G1 X109.74 Y119.465 E.02269
G1 X109.876 Y120.176 E.02269
G1 X110.099 Y120.864 E.02268
G1 X110.407 Y121.519 E.02269
G1 X110.795 Y122.13 E.02269
G1 X111.256 Y122.687 E.02268
G1 X111.784 Y123.183 E.02269
G1 X112.369 Y123.608 E.02269
G1 X113.003 Y123.957 E.02269
G1 X113.676 Y124.223 E.02269
G1 X114.377 Y124.403 E.02269
G1 X115.095 Y124.494 E.02269
G1 X115.818 Y124.494 E.02268
G1 X116.536 Y124.403 E.02269
G1 X117.237 Y124.223 E.02269
G1 X117.909 Y123.957 E.02269
G1 X118.543 Y123.608 E.02269
G1 X119.129 Y123.183 E.02269
G1 X119.656 Y122.687 E.02269
G1 X120.117 Y122.13 E.02268
G1 X120.505 Y121.519 E.02269
G1 X120.813 Y120.864 E.02269
G1 X121.037 Y120.176 E.02268
G1 X121.172 Y119.465 E.02269
G1 X121.218 Y118.743 E.02269
G1 X121.172 Y118.021 E.02269
G1 X121.037 Y117.31 E.02269
G1 X120.813 Y116.622 E.02269
G1 X120.617 Y116.179 E.01519
G1 X120.496 Y115.535 E.02055
G1 X120.456 Y114.882 E.02053
G1 X120.496 Y114.252 E.0198
G1 X120.617 Y113.608 E.02053
G1 X120.788 Y113.077 E.0175
G1 X120.887 Y113.005 E.00383
G1 X126.218 Y113.005 E.16714
G1 X126.218 Y110.615 E.07492
G1 X126.328 Y110.505 E.0049
G1 X128.084 Y110.505 E.05506
G1 X128.195 Y110.615 E.0049
G1 X128.195 Y136.371 E.80757
G1 X128.084 Y136.482 E.0049
G1 X122.563 Y136.48 E.17311
G1 X121.087 Y136.292 E.04667
G1 X118.97 Y135.749 E.06852
G1 X116.916 Y134.937 E.06925
G1 X114.96 Y133.862 E.06999
G1 X113.174 Y132.562 E.06925
G1 X111.581 Y131.067 E.06851
G1 X110.158 Y129.347 E.06999
G1 X108.976 Y127.481 E.06925
G1 X108.045 Y125.504 E.06851
G1 X107.356 Y123.381 E.06999
G1 X106.943 Y121.211 E.06925
G1 X106.806 Y119.03 E.06851
G1 X106.946 Y116.802 E.06999
G1 X107.356 Y114.656 E.06851
G1 X107.867 Y113.077 E.05205
G1 X107.918 Y113.04 E.00196
G1 E-3.5 F3600
;WIPE_START
G1 F7200
G1 X110.025 Y113.005 E-1.00132
G1 X110.124 Y113.077 E-.05808
G1 X110.296 Y113.608 E-.26527
G1 X110.335 Y113.816 E-.10033
;WIPE_END
G1 E-.075 F3600
G1 Z1.2 F9000
G1 X110.218 Y110.582
G1 Z.2
G1 E5 F2400
G1 F1200
G1 X110.003 Y110.381 E.00924
G1 X109.416 Y109.676 E.02875
G1 X108.873 Y108.821 E.03177
G1 X108.494 Y108.011 E.02802
G1 X108.209 Y107.141 E.02872
G1 X108.019 Y106.147 E.03174
G1 X107.964 Y105.232 E.02872
G1 X108.019 Y104.34 E.02802
G1 X108.191 Y103.415 E.0295
G1 X108.477 Y102.519 E.0295
G1 X108.896 Y101.624 E.031
G1 X109.388 Y100.85 E.02875
G1 X109.97 Y100.141 E.02876
G1 X110.69 Y99.463 E.03102
G1 X111.432 Y98.924 E.02875
G1 X112.234 Y98.48 E.02873
G1 X113.176 Y98.107 E.03177
G1 X114.064 Y97.882 E.02874
G1 X114.952 Y97.768 E.02806
G1 X115.97 Y97.773 E.03191
G1 X116.873 Y97.887 E.02854
G1 X117.761 Y98.115 E.02877
G1 X118.636 Y98.46 E.02948
G1 X119.44 Y98.899 E.02873
G1 X120.26 Y99.494 E.03175
G1 X120.926 Y100.123 E.02874
G1 X121.496 Y100.811 E.028
G1 X122.039 Y101.665 E.03174
G1 X122.426 Y102.496 E.02872
G1 X122.704 Y103.345 E.02802
G1 X122.894 Y104.34 E.03176
G1 X122.948 Y105.254 E.02872
G1 X122.894 Y106.146 E.02802
G1 X122.704 Y107.142 E.03178
G1 X122.426 Y107.991 E.02802
G1 X122.039 Y108.821 E.02872
G1 X121.496 Y109.676 E.03174
G1 X120.91 Y110.38 E.02873
G1 X120.241 Y111.008 E.02877
G1 X119.44 Y111.588 E.03102
G1 X118.614 Y112.037 E.02948
G1 X117.761 Y112.372 E.02873
G1 X116.872 Y112.6 E.02876
G1 X115.963 Y112.718 E.02875
G1 X114.95 Y112.718 E.03175
G1 X114.042 Y112.601 E.02872
G1 X113.176 Y112.38 E.02802
G1 X112.233 Y112.007 E.03178
G1 X111.431 Y111.562 E.02875
G1 X110.69 Y111.024 E.02873
G1 X110.262 Y110.623 E.01836
G1 X110.52 Y110.349 F9000
G1 F1200
G1 X110.27 Y110.114 E.01075
G1 X109.714 Y109.445 E.02728
G1 X109.21 Y108.65 E.02952
G1 X108.841 Y107.862 E.02728
G1 X108.571 Y107.036 E.02726
G1 X108.395 Y106.112 E.02949
G1 X108.341 Y105.244 E.02726
G1 X108.394 Y104.375 E.02728
G1 X108.559 Y103.497 E.02802
G1 X108.832 Y102.646 E.02801
G1 X109.222 Y101.816 E.02877
G1 X109.686 Y101.08 E.02728
G1 X110.253 Y100.39 E.028
G1 X110.939 Y99.746 E.0295
G1 X111.644 Y99.236 E.02726
G1 X112.405 Y98.816 E.02728
G1 X113.28 Y98.469 E.02952
G1 X114.124 Y98.254 E.02728
G1 X114.987 Y98.144 E.0273
G1 X115.955 Y98.15 E.03036
G1 X116.813 Y98.259 E.0271
G1 X117.655 Y98.477 E.02728
G1 X118.486 Y98.806 E.02802
G1 X119.249 Y99.223 E.02726
G1 X120.01 Y99.777 E.0295
G1 X120.643 Y100.373 E.02728
G1 X121.198 Y101.042 E.02726
G1 X121.702 Y101.836 E.02949
G1 X122.071 Y102.624 E.02726
G1 X122.342 Y103.451 E.02728
G1 X122.518 Y104.375 E.0295
G1 X122.571 Y105.243 E.02726
G1 X122.518 Y106.111 E.02728
G1 X122.342 Y107.036 E.02952
G1 X122.071 Y107.863 E.02728
G1 X121.702 Y108.65 E.02726
G1 X121.198 Y109.444 E.02949
G1 X120.643 Y110.113 E.02726
G1 X119.992 Y110.725 E.02803
G1 X119.249 Y111.263 E.02877
G1 X118.464 Y111.691 E.02801
G1 X117.655 Y112.01 E.02726
G1 X116.79 Y112.232 E.02802
G1 X115.927 Y112.343 E.02728
G1 X114.986 Y112.343 E.0295
G1 X114.124 Y112.232 E.02726
G1 X113.28 Y112.017 E.02728
G1 X112.405 Y111.671 E.02951
G1 X111.624 Y111.238 E.028
G1 X110.922 Y110.726 E.02726
G1 X110.564 Y110.39 E.01539
G1 X110.821 Y110.115 F9000
G1 F1200
G1 X110.553 Y109.864 E.01152
G1 X110.012 Y109.213 E.02652
G1 X109.546 Y108.479 E.02726
G1 X109.187 Y107.713 E.02653
G1 X108.933 Y106.93 E.02579
G1 X108.77 Y106.076 E.02727
G1 X108.718 Y105.255 E.02579
G1 X108.77 Y104.41 E.02653
G1 X108.927 Y103.579 E.02653
G1 X109.187 Y102.774 E.02652
G1 X109.558 Y101.987 E.02727
G1 X109.998 Y101.292 E.0258
G1 X110.537 Y100.64 E.02653
G1 X111.171 Y100.044 E.02727
G1 X111.836 Y99.561 E.02579
G1 X112.577 Y99.152 E.02653
G1 X113.385 Y98.832 E.02726
G1 X114.205 Y98.623 E.02653
G1 X115.022 Y98.52 E.0258
G1 X115.941 Y98.527 E.02883
G1 X116.73 Y98.627 E.02494
G1 X117.549 Y98.839 E.02653
G1 X118.336 Y99.152 E.02653
G1 X119.057 Y99.548 E.02579
G1 X119.76 Y100.059 E.02727
G1 X120.376 Y100.64 E.02653
G1 X120.9 Y101.273 E.02579
G1 X121.366 Y102.008 E.02727
G1 X121.717 Y102.752 E.02579
G1 X121.979 Y103.556 E.02653
G1 X122.142 Y104.411 E.02727
G1 X122.194 Y105.232 E.02579
G1 X122.142 Y106.076 E.02653
G1 X121.979 Y106.93 E.02726
G1 X121.717 Y107.735 E.02653
G1 X121.366 Y108.479 E.02579
G1 X120.9 Y109.213 E.02727
G1 X120.376 Y109.847 E.02579
G1 X119.76 Y110.427 E.02653
G1 X119.057 Y110.938 E.02726
G1 X118.314 Y111.345 E.02653
G1 X117.549 Y111.648 E.0258
G1 X116.73 Y111.86 E.02654
G1 X115.891 Y111.967 E.02652
G1 X115.021 Y111.967 E.02726
G1 X114.205 Y111.864 E.02579
G1 X113.385 Y111.655 E.02653
G1 X112.577 Y111.335 E.02726
G1 X111.836 Y110.926 E.02653
G1 X111.17 Y110.442 E.0258
G1 X110.865 Y110.156 E.01313
G1 E-3.5 F3600
;WIPE_START
G1 F7200
G1 X110.553 Y109.864 E-.20306
G1 X110.012 Y109.213 E-.40183
G1 X109.546 Y108.479 E-.41304
G1 X109.187 Y107.713 E-.40191
G1 X109.184 Y107.702 E-.00516
;WIPE_END
G1 E-.075 F3600
G1 Z1.2 F9000
G1 X109.812 Y113.403
G1 Z.2
G1 E5 F2400
;TYPE:External perimeter
G1 F1200
G1 X109.907 Y113.696 E.00965
G1 X110.02 Y114.29 E.01896
G1 X110.058 Y114.893 E.01896
G1 X110.02 Y115.497 E.01896
G1 X109.909 Y116.079 E.01858
G1 X109.728 Y116.477 E.01371
G1 X109.489 Y117.211 E.02421
G1 X109.344 Y117.971 E.02426
G1 X109.295 Y118.743 E.02426
G1 X109.344 Y119.516 E.02426
G1 X109.489 Y120.276 E.02426
G1 X109.728 Y121.011 E.02426
G1 X110.057 Y121.711 E.02426
G1 X110.472 Y122.365 E.02426
G1 X110.965 Y122.961 E.02425
G1 X111.529 Y123.49 E.02426
G1 X112.155 Y123.945 E.02426
G1 X112.833 Y124.318 E.02426
G1 X113.553 Y124.603 E.02426
G1 X114.302 Y124.795 E.02426
G1 X115.069 Y124.892 E.02426
G1 X115.843 Y124.892 E.02425
