; generated by PrusaSlicer 2.5.0 on 2023-01-20 at 02:10:39 UTC


;
;

;
;
; 

; external perimeters extrusion width = 0.45mm
; perimeters extrusion width = 0.45mm
; infill extrusion width = 0.45mm
; solid infill extrusion width = 0.45mm
; top infill extrusion width = 0.40mm
; support material extrusion width = 0.38mm
; first layer extrusion width = 0.42mm

M107
;TYPE:Custom
G90 ; use absolute coordinates
M83 ; extruder relative mode
M104 S120 ; set temporary nozzle temp to prevent oozing during homing and auto bed leveling
M140 S65 ; set final bed temp
G4 S10 ; allow partial nozzle warmup
G28 ; home all axis
G1 Z50 F240
G1 X2 Y10 F3000
M104 S205 ; set final nozzle temp
M190 S65 ; wait for bed temp to stabilize
M109 S205 ; wait for nozzle temp to stabilize
G1 Z0.28 F240
G92 E0
G1 Y140 E10 F1500 ; prime the nozzle
G1 X2.3 F5000
G92 E0
G1 Y10 E10 F1200 ; prime the nozzle
G92 E0
G21 ; set units to millimeters
G90 ; use absolute coordinates
M83 ; use relative distances for extrusion
; Filament gcode
M107
;LAYER_CHANGE
;Z:0.2
;HEIGHT:0.2
;BEFORE_LAYER_CHANGE
G92 E0
;0.2


G1 E-5 F3600
G1 Z1 F9000
;AFTER_LAYER_CHANGE
;0.2
G1 X96.889 Y100.589
G1 Z.2
G1 E5 F2400
;TYPE:Skirt/Brim
;WIDTH:0.42
G1 F1200
G1 X97.797 Y99.838 E.03694
G1 X99.179 Y99.032 E.05018
G1 X100.582 Y98.528 E.04674
G1 X102.161 Y98.267 E.05019
G1 X132.305 Y98.247 E.94514
G1 X133.79 Y98.387 E.04675
G1 X135.329 Y98.824 E.05017
G1 X136.395 Y99.325 E.03694
G1 X137.628 Y100.163 E.04674
G1 X138.486 Y100.969 E.03692
G1 X139.4 Y102.148 E.04676
G1 X139.968 Y103.179 E.03692
G1 X140.5 Y104.689 E.05018
G1 X140.688 Y105.691 E.03196
G1 X141.754 Y114.5 E.27823
G1 X141.754 Y135 E.64276
G1 X141.366 Y136.101 E.03661
G1 X140.182 Y136.745 E.04225
G1 X120.52 Y138.785 E.61979
G1 X114.298 Y138.775 E.19508
G1 X94.818 Y136.745 E.61409
G1 X93.763 Y136.244 E.03661
G1 X93.246 Y135 E.04225
G1 X93.259 Y114.287 E.64945
G1 X94.312 Y105.691 E.27154
G1 X94.528 Y104.582 E.03541
G1 X94.864 Y103.569 E.03348
G1 X95.325 Y102.605 E.03349
G1 X95.903 Y101.707 E.03348
G1 X96.849 Y100.634 E.04485
G1 X97.132 Y100.883 F9000
G1 F1200
G1 X98.009 Y100.15 E.03584
G1 X99.329 Y99.379 E.04795
G1 X100.687 Y98.89 E.04525
G1 X102.197 Y98.642 E.04796
G1 X132.293 Y98.624 E.94366
G1 X133.73 Y98.76 E.04527
G1 X135.201 Y99.178 E.04795
G1 X136.203 Y99.65 E.03471
G1 X137.397 Y100.461 E.04526
G1 X138.203 Y101.219 E.0347
G1 X139.088 Y102.359 E.04527
G1 X139.621 Y103.329 E.0347
G1 X140.132 Y104.771 E.04796
G1 X140.314 Y105.737 E.03081
G1 X141.377 Y114.5 E.27679
G1 X141.377 Y135 E.64276
G1 X140.992 Y135.956 E.03231
G1 X140.143 Y136.37 E.02961
G1 X120.663 Y138.4 E.61409
G1 X114.48 Y138.408 E.19385
G1 X94.857 Y136.37 E.61857
G1 X93.947 Y135.887 E.03231
G1 X93.623 Y135 E.02961
G1 X93.633 Y114.333 E.64801
G1 X94.686 Y105.737 E.27154
G1 X94.89 Y104.687 E.03352
G1 X95.21 Y103.718 E.03199
G1 X95.65 Y102.797 E.032
G1 X96.201 Y101.938 E.032
G1 X97.092 Y100.928 E.04223
G1 E-3.5 F3600
;WIPE_START
G1 F7200
G1 X98.009 Y100.15 E-.57115
G1 X99.329 Y99.379 E-.72645
G1 X99.582 Y99.288 E-.1274
;WIPE_END
G1 E-.075 F3600
G1 Z1.2 F9000
G1 X124.29 Y114.031
G1 Z.2
G1 E5 F2400
;TYPE:Support material
G1 F1200
G1 X124.02 Y114.301 E.01197
G1 X124.02 Y132.52 E.57124
G1 X119.301 Y132.52 E.14796
G1 X119.02 Y132.801 E.01247
G1 X119.02 Y135.199 E.07518
G1 X119.301 Y135.48 E.01247
G1 X120.52 Y135.48 E.03821
G1 X120.52 Y137.031 E.04862
G1 X117.862 Y135.255 E.10023
G1 X117.5 Y135.105 E.01228
G1 X117.138 Y135.255 E.01228
G1 X114.48 Y137.031 E.10024
G1 X114.48 Y135.48 E.04862
G1 X115.699 Y135.48 E.03821
G1 X115.98 Y135.199 E.01247
G1 X115.98 Y132.801 E.07518
G1 X115.699 Y132.52 E.01247
G1 X110.98 Y132.52 E.14796
G1 X110.98 Y114.301 E.57124
G1 X110.71 Y114.031 E.01197
G1 X110.71 Y110.21 E.11982
G1 X116.656 Y110.21 E.18643
G1 X117.5 Y111.054 E.03743
G1 X118.344 Y110.21 E.03743
G1 X124.29 Y110.21 E.18643
G1 X124.29 Y113.975 E.11805
G1 E-3.5 F3600
;WIPE_START
G1 F7200
G1 X124.29 Y110.975 E-1.425
;WIPE_END
G1 E-.075 F3600
G1 Z1.2 F9000
G1 X123.785 Y132.35
G1 Z.2
G1 E5 F2400
G1 F1200
G1 X123.785 Y110.549 E.68356
G1 X123.366 Y110.549 E.01314
G1 X123.366 Y132.181 E.67824
G1 X122.947 Y132.181 E.01314
G1 X122.947 Y110.549 E.67824
G1 X122.528 Y110.549 E.01314
G1 X122.528 Y132.181 E.67824
G1 X122.109 Y132.181 E.01314
G1 X122.109 Y110.549 E.67823
G1 X121.69 Y110.549 E.01314
G1 X121.69 Y132.181 E.67823
G1 X121.271 Y132.181 E.01314
G1 X121.271 Y110.549 E.67823
G1 X120.852 Y110.549 E.01314
G1 X120.852 Y132.181 E.67823
G1 X120.433 Y132.181 E.01314
G1 X120.433 Y110.549 E.67823
G1 X120.014 Y110.55 E.01314
G1 X120.014 Y132.181 E.67823
G1 X119.595 Y132.181 E.01314
G1 X119.595 Y110.55 E.67823
G1 X119.176 Y110.55 E.01314
G1 X119.176 Y132.405 E.68527
G1 E-3.5 F3600
;WIPE_START
G1 F7200
G1 X119.176 Y129.405 E-1.425
;WIPE_END
G1 E-.075 F3600
G1 Z1.2 F9000
G1 X120.014 Y136.488
G1 Z.2
G1 E5 F2400
G1 F1200
G1 X120.014 Y135.819 E.02097
G1 X119.595 Y135.819 E.01314
G1 X119.595 Y136.208 E.0122
G1 X118.757 Y135.648 F9000
G1 F1200
G1 X118.757 Y110.55 E.78696
G1 X118.485 Y110.55 E.00853
G1 X118.338 Y110.696 E.00651
G1 X118.338 Y135.164 E.76718
G1 X118.023 Y134.954 E.01189
G1 X117.919 Y134.911 E.00352
G1 X117.919 Y111.115 E.74609
G1 X117.5 Y111.534 E.01858
G1 X117.5 Y134.737 E.72751
G1 X117.081 Y134.911 E.01422
G1 X117.081 Y111.115 E.74609
G1 X116.662 Y110.696 E.01858
G1 X116.662 Y135.164 E.76718
G1 X116.243 Y135.444 E.0158
G1 X116.243 Y110.55 E.78056
G1 X115.824 Y110.55 E.01314
G1 X115.824 Y132.181 E.67823
G1 X115.405 Y132.181 E.01314
G1 X115.405 Y110.55 E.67823
G1 X114.986 Y110.55 E.01314
G1 X114.986 Y132.181 E.67823
G1 X114.567 Y132.181 E.01314
G1 X114.567 Y110.549 E.67823
G1 X114.148 Y110.549 E.01314
G1 X114.148 Y132.181 E.67823
G1 X113.729 Y132.181 E.01314
G1 X113.729 Y110.549 E.67823
G1 X113.31 Y110.549 E.01314
G1 X113.31 Y132.181 E.67823
G1 X112.891 Y132.181 E.01314
G1 X112.891 Y110.549 E.67823
G1 X112.472 Y110.549 E.01314
G1 X112.472 Y132.181 E.67824
G1 X112.053 Y132.181 E.01314
G1 X112.053 Y110.549 E.67824
G1 X111.634 Y110.549 E.01314
G1 X111.634 Y132.181 E.67824
G1 X111.319 Y132.181 E.00988
G1 X111.319 Y114.161 E.56501
G1 X111.215 Y114.057 E.00461
G1 X111.215 Y110.379 E.11529
G1 E-3.5 F3600
;WIPE_START
G1 F7200
G1 X111.215 Y113.379 E-1.425
;WIPE_END
G1 E-.075 F3600
G1 Z1.2 F9000
G1 X115.405 Y136.208
G1 Z.2
G1 E5 F2400
G1 F1200
G1 X115.405 Y135.819 E.0122
G1 X114.986 Y135.819 E.01314
G1 X114.986 Y136.488 E.02098
G1 E-3.5 F3600
;WIPE_START
G1 F7200
G1 X114.986 Y135.819 E-.31778
G1 X115.405 Y135.819 E-.19901
G1 X115.405 Y136.208 E-.18481
;WIPE_END
G1 E-.7984 F3600
G1 Z1.2 F9000
G1 X109.707 Y121.717
G1 Z.2
G1 E5 F2400
;TYPE:Perimeter
;WIDTH:0.446168
G1 F1200
G1 X109.713 Y121.9 E.00615
;WIDTH:0.419999
G1 X109.713 Y133.221 E.35498
G1 X109.826 Y133.561 E.01122
;WIDTH:0.444381
G1 X110.279 Y133.799 E.01707
G1 X114.701 Y133.799 E.14762
G1 X114.701 Y134.201 E.0134
G1 X109.5 Y134.213 E.17361
;WIDTH:0.419999
G1 X95.787 Y134.213 E.42996
G1 X95.787 Y121.9 E.38606
;WIDTH:0.468626
G1 X95.811 Y121.049 E.03014
G1 X95.799 Y120.254 E.02815
;WIDTH:0.444381
G1 X95.799 Y115.299 E.16539
G1 X96.201 Y115.299 E.0134
G1 X96.201 Y120.254 E.16539
;WIDTH:0.445152
G1 X96.201 Y120.29 E.00122
;WIDTH:0.472286
G1 X96.244 Y121.109 E.02929
G1 X96.336 Y121.51 E.01466
;WIDTH:0.446143
G1 X96.428 Y121.91 E.01377
;WIDTH:0.419999
G1 X96.686 Y122.689 E.02573
G1 X97.039 Y123.43 E.02574
G1 X97.483 Y124.121 E.02573
G1 X98.01 Y124.75 E.02574
G1 X98.611 Y125.309 E.02574
G1 X99.293 Y125.796 E.02628
G1 X100.377 Y126.34 E.03803
G1 X101.159 Y126.59 E.02573
G1 X101.966 Y126.739 E.02574
G1 X102.786 Y126.786 E.02574
G1 X103.604 Y126.73 E.02574
G1 X104.555 Y126.525 E.03048
G1 X105.189 Y126.314 E.02096
G1 X105.93 Y125.961 E.02573
G1 X106.621 Y125.517 E.02576
G1 X107.25 Y124.99 E.02572
G1 X107.809 Y124.389 E.02573
G1 X108.288 Y123.722 E.02575
G1 X108.685 Y122.985 E.02627
G1 X109.09 Y121.841 E.03803
;WIDTH:0.446168
G1 X109.173 Y121.475 E.01257
;WIDTH:0.472336
G1 X109.256 Y121.11 E.01339
G1 X109.291 Y120.626 E.01732
;WIDTH:0.450206
G1 X109.298 Y115.5 E.17358
;WIDTH:0.445168
G1 X109.298 Y115.3 E.00671
G1 X109.7 Y115.3 E.01344
G1 X109.7 Y115.501 E.00673
;WIDTH:0.450206
G1 X109.698 Y120.626 E.17358
;WIDTH:0.472336
G1 X109.7 Y121.525 E.0321
;WIDTH:0.446168
G1 X109.704 Y121.657 E.00441
G1 E-3.5 F3600
;WIPE_START
G1 F7200
G1 X109.713 Y121.9 E-.11565
G1 X109.713 Y124.657 E-1.30935
;WIPE_END
G1 E-.075 F3600
G1 Z1.2 F9000
G1 X98.909 Y125.059
G1 Z.2
G1 E5 F2400
;TYPE:External perimeter
;WIDTH:0.419999
G1 F1200
G1 X99.464 Y125.46 E.02147
G1 X100.493 Y125.982 E.03618
G1 X101.23 Y126.219 E.02425
G1 X101.99 Y126.363 E.02425
G1 X102.762 Y126.41 E.02426
G1 X103.534 Y126.36 E.02426
G1 X104.438 Y126.166 E.029
G1 X105.029 Y125.973 E.01948
G1 X105.728 Y125.642 E.02424
G1 X106.381 Y125.226 E.02428
G1 X106.975 Y124.732 E.02424
G1 X107.504 Y124.167 E.02425
G1 X107.957 Y123.54 E.02427
G1 X108.33 Y122.857 E.02442
G1 X108.719 Y121.77 E.03618
G1 X108.86 Y121.034 E.0235
G1 X108.898 Y120.625 E.01288
G1 X108.91 Y114.91 E.17919
G1 X110.09 Y114.91 E.03701
G1 X110.09 Y133.221 E.57414
G1 X110.128 Y133.335 E.00374
G1 X110.279 Y133.41 E.00529
G1 X115.09 Y133.41 E.15086
G1 X115.09 Y134.59 E.037
G1 X95.41 Y134.59 E.61705
G1 X95.41 Y114.91 E.61705
G1 X96.59 Y114.91 E.037
G1 X96.59 Y120.254 E.16755
G1 X96.64 Y121.034 E.02451
G1 X96.787 Y121.793 E.02425
G1 X97.027 Y122.529 E.02425
G1 X97.358 Y123.228 E.02426
G1 X97.774 Y123.88 E.02425
G1 X98.268 Y124.475 E.02425
G1 X98.86 Y125.024 E.02532
G1 X98.845 Y125.454 F9000
G1 E-3.5 F3600
;WIPE_START
G1 F7200
G1 X99.464 Y125.46 E-.35381
G1 X100.493 Y125.982 E-.54806
G1 X101.23 Y126.219 E-.36741
G1 X101.552 Y126.28 E-.15572
;WIPE_END
G1 E-.075 F3600
G1 Z1.2 F9000
G1 X109.161 Y121.998
G1 Z.2
G1 E5 F2400
;TYPE:Solid infill
;WIDTH:0.421041
G1 F1200
G1 X109.43 Y122.267 E.01199
G1 X109.43 Y122.802 E.01681
G1 X109.149 Y122.521 E.01251
G1 X109.005 Y122.911 E.01309
G1 X109.43 Y123.337 E.01892
G1 X109.43 Y123.871 E.01681
G1 X108.848 Y123.289 E.0259
G1 X108.656 Y123.632 E.01236
G1 X109.43 Y124.406 E.03442
G1 X109.43 Y124.941 E.01681
G1 X108.461 Y123.972 E.04308
G1 X108.236 Y124.282 E.01204
G1 X109.43 Y125.476 E.05309
G1 X109.43 Y126.01 E.01681
G1 X108.008 Y124.588 E.06325
G1 X107.749 Y124.864 E.01189
G1 X109.43 Y126.545 E.07476
G1 X109.43 Y127.08 E.01681
G1 X107.49 Y125.14 E.08628
G1 X107.21 Y125.394 E.0119
G1 X109.43 Y127.615 E.09872
G1 X109.43 Y128.149 E.01681
G1 X106.915 Y125.635 E.11182
G1 X106.61 Y125.864 E.01201
G1 X109.43 Y128.684 E.1254
G1 X109.43 Y129.219 E.01681
G1 X106.283 Y126.071 E.13995
G1 X105.943 Y126.266 E.01232
G1 X109.43 Y129.754 E.15506
G1 X109.43 Y130.288 E.01681
G1 X105.581 Y126.44 E.17113
G1 X105.21 Y126.603 E.01276
G1 X109.43 Y130.823 E.18764
G1 X109.43 Y131.358 E.01681
G1 X104.806 Y126.734 E.20559
G1 X104.403 Y126.865 E.01334
G1 X109.43 Y131.893 E.22353
G1 X109.43 Y132.427 E.01681
G1 X103.954 Y126.951 E.24349
G1 X103.489 Y127.021 E.01477
G1 X109.6 Y133.132 E.27169
G1 X110.008 Y134.075 F9000
G1 F1200
G1 X102.989 Y127.056 E.3121
G1 X102.798 Y127.069 E.00603
G1 X102.445 Y127.047 E.0111
G1 X109.329 Y133.93 E.30607
G1 X108.794 Y133.93 E.01681
G1 X101.874 Y127.011 E.30767
G1 X101.218 Y126.889 E.021
G1 X108.259 Y133.93 E.31309
G1 X107.724 Y133.93 E.01681
G1 X100.14 Y126.346 E.33723
G1 E-3.5 F3600
;WIPE_START
G1 F7200
G1 X102.262 Y128.467 E-1.425
;WIPE_END
G1 E-.075 F3600
G1 Z1.2 F9000
G1 X96.632 Y122.837
G1 Z.2
G1 E5 F2400
G1 F1200
G1 X96.07 Y122.276 E.02497
G1 X96.07 Y122.81 E.01681
G1 X96.762 Y123.503 E.03078
G1 X97.206 Y124.219 E.0265
G1 X97.747 Y124.883 E.02692
G1 X98.44 Y125.534 E.02992
G1 X99.159 Y126.045 E.02771
G1 X99.45 Y126.19 E.01023
G1 X107.19 Y133.93 E.34414
G1 X106.655 Y133.93 E.01681
G1 X96.07 Y123.345 E.47066
G1 X96.07 Y123.88 E.01681
G1 X106.12 Y133.93 E.44688
G1 X105.585 Y133.93 E.01681
G1 X96.07 Y124.415 E.4231
G1 X96.07 Y124.949 E.01681
G1 X105.051 Y133.93 E.39933
G1 X104.516 Y133.93 E.01681
G1 X96.07 Y125.484 E.37555
G1 X96.07 Y126.019 E.01681
G1 X103.981 Y133.93 E.35177
G1 X103.447 Y133.93 E.01681
G1 X96.07 Y126.553 E.328
G1 X96.07 Y127.088 E.01681
G1 X102.912 Y133.93 E.30422
G1 X102.377 Y133.93 E.01681
G1 X96.07 Y127.623 E.28044
G1 X96.07 Y128.158 E.01681
G1 X101.842 Y133.93 E.25667
G1 X101.308 Y133.93 E.01681
G1 X96.07 Y128.692 E.23289
G1 X96.07 Y129.227 E.01681
G1 X100.773 Y133.93 E.20911
G1 X100.238 Y133.93 E.01681
G1 X96.07 Y129.762 E.18533
G1 X96.07 Y130.297 E.01681
G1 X99.703 Y133.93 E.16156
G1 X99.169 Y133.93 E.01681
G1 X96.07 Y130.831 E.13778
G1 X96.07 Y131.366 E.01681
G1 X98.634 Y133.93 E.114
G1 X98.099 Y133.93 E.01681
G1 X96.07 Y131.901 E.09023
G1 X96.07 Y132.436 E.01681
G1 X97.564 Y133.93 E.06645
G1 X97.03 Y133.93 E.01681
G1 X96.07 Y132.97 E.04267
G1 X96.07 Y133.505 E.01681
G1 X96.665 Y134.1 E.02644
G1 E-3.5 F3600
;WIPE_START
G1 F7200
G1 X96.07 Y133.505 E-.39947
G1 X96.07 Y132.97 E-.254
G1 X97.03 Y133.93 E-.6447
G1 X97.297 Y133.93 E-.12683
;WIPE_END
G1 E-.075 F3600
G1 Z1.2 F9000
G1 X125.287 Y126.938
G1 Z.2
G1 E5 F2400
;TYPE:Perimeter
;WIDTH:0.419999
G1 F1200
G1 X125.287 Y121.9 E.15795
;WIDTH:0.468647
G1 X125.311 Y121.049 E.03014
G1 X125.299 Y120.254 E.02815
;WIDTH:0.444381
G1 X125.299 Y115.299 E.16539
G1 X125.701 Y115.299 E.0134
G1 X125.701 Y120.254 E.16539
;WIDTH:0.445153
G1 X125.701 Y120.29 E.00122
;WIDTH:0.472304
G1 X125.744 Y121.109 E.02929
G1 X125.836 Y121.51 E.01466
;WIDTH:0.446152
G1 X125.928 Y121.91 E.01377
;WIDTH:0.419999
G1 X126.186 Y122.689 E.02574
G1 X126.539 Y123.43 E.02574
G1 X126.983 Y124.121 E.02573
G1 X127.51 Y124.75 E.02574
G1 X128.111 Y125.309 E.02574
G1 X128.793 Y125.796 E.02628
G1 X129.877 Y126.34 E.03803
G1 X130.659 Y126.59 E.02573
G1 X131.466 Y126.739 E.02574
G1 X132.286 Y126.786 E.02574
G1 X133.104 Y126.73 E.02574
G1 X134.055 Y126.525 E.03048
G1 X134.689 Y126.314 E.02096
G1 X135.43 Y125.961 E.02573
G1 X136.121 Y125.517 E.02576
G1 X136.75 Y124.99 E.02572
G1 X137.309 Y124.389 E.02573
G1 X137.788 Y123.722 E.02575
G1 X138.179 Y123.001 E.02573
G1 X138.477 Y122.236 E.02572
;WIDTH:0.46022
G1 X138.597 Y121.84 E.01435
;WIDTH:0.500441
G1 X138.717 Y121.445 E.01574
G1 X138.754 Y121.035 E.01563
;WIDTH:0.475311
G1 X138.791 Y120.626 E.01477
;WIDTH:0.450181
G1 X138.798 Y115.5 E.17358
;WIDTH:0.445164
G1 X138.798 Y115.3 E.00671
G1 X139.2 Y115.3 E.01344
G1 X139.2 Y115.501 E.00673
;WIDTH:0.450181
G1 X139.198 Y120.627 E.17358
;WIDTH:0.453285
G1 X139.196 Y120.724 E.00332
;WIDTH:0.489739
G1 X139.178 Y121.579 E.03177
G1 X139.195 Y121.954 E.01396
;WIDTH:0.454869
G1 X139.213 Y122.329 E.01287
;WIDTH:0.419999
G1 X139.213 Y134.213 E.3726
G1 X125.5 Y134.213 E.42996
;WIDTH:0.444381
G1 X120.299 Y134.201 E.17361
G1 X120.299 Y133.799 E.0134
G1 X124.721 Y133.799 E.14762
;WIDTH:0.45028
G1 X124.822 Y133.793 E.0034
G1 X125.174 Y133.561 E.0143
;WIDTH:0.419999
G1 X125.287 Y133.221 E.01122
G1 X125.287 Y126.998 E.19514
G1 E-3.5 F3600
;WIPE_START
G1 F7200
G1 X125.287 Y123.998 E-1.425
;WIPE_END
G1 E-.075 F3600
G1 Z1.2 F9000
G1 X124.91 Y119.883
G1 Z.2
G1 E5 F2400
;TYPE:External perimeter
G1 F1200
G1 X124.91 Y114.91 E.15592
G1 X126.09 Y114.91 E.037
G1 X126.09 Y120.254 E.16755
G1 X126.14 Y121.034 E.02451
G1 X126.287 Y121.793 E.02425
G1 X126.527 Y122.529 E.02425
G1 X126.858 Y123.228 E.02425
G1 X127.274 Y123.88 E.02425
G1 X127.768 Y124.475 E.02425
G1 X128.333 Y125.004 E.02425
G1 X128.964 Y125.46 E.02443
G1 X129.966 Y125.97 E.03525
G1 X130.73 Y126.219 E.02518
G1 X131.49 Y126.363 E.02425
G1 X132.262 Y126.41 E.02426
G1 X133.034 Y126.36 E.02426
G1 X133.938 Y126.166 E.029
G1 X134.529 Y125.973 E.01948
G1 X135.228 Y125.642 E.02424
G1 X135.881 Y125.226 E.02428
G1 X136.475 Y124.732 E.02424
G1 X137.004 Y124.167 E.02425
G1 X137.457 Y123.54 E.02427
G1 X137.829 Y122.862 E.02425
G1 X138.112 Y122.143 E.02424
G1 X138.303 Y121.392 E.02428
G1 X138.398 Y120.625 E.02423
G1 X138.41 Y114.91 E.1792
G1 X139.59 Y114.91 E.03701
G1 X139.59 Y134.59 E.61705
G1 X119.91 Y134.59 E.61705
G1 X119.91 Y133.41 E.037
G1 X124.721 Y133.41 E.15086
G1 X124.872 Y133.335 E.00529
G1 X124.91 Y133.221 E.00374
G1 X124.91 Y119.943 E.41634
G1 X125.257 Y119.683 F9000
G1 E-3.5 F3600
;WIPE_START
G1 F7200
G1 X124.91 Y116.943 E-1.425
;WIPE_END
G1 E-.075 F3600
